packages/token-projects/images/xswim.svg

<svg width="683" height="685" xmlns="http://www.w3.org/2000/svg" xml:space="preserve" overflow="hidden"><defs><clipPath id="a"><path d="M1584 1109h683v685h-683z"/></clipPath><clipPath id="b"><path d="M1630 1208h591v387h-591z"/></clipPath><clipPath id="c"><path d="M1630 1208h591v387h-591z"/></clipPath><clipPath id="d"><path d="M1630 1208h591v592h-591z"/></clipPath></defs><g clip-path="url(#a)" transform="translate(-1584 -1109)"><path d="M1618.06 1329.14c67.78-170.13 260.26-253.26 429.92-185.67 169.66 67.59 252.25 260.3 184.47 430.43s-260.26 253.26-429.92 185.67c-169.66-67.59-252.25-260.3-184.47-430.43Z" stroke="#277CE2" stroke-width="20.625" stroke-miterlimit="8" fill="#0D0D0D" fill-rule="evenodd"/><g clip-path="url(#b)"><g clip-path="url(#c)"><g clip-path="url(#d)" stroke="#277CE2" stroke-width="1.093"><path d="M197.973 430.063v15.856c-5.945-3.453-12.12-5.18-18.502-5.18-2.863 0-5.048.59-6.556 1.76-1.508 1.18-2.263 2.677-2.263 4.513 0 1.836.918 3.464 2.754 4.896 1.836 1.431 4.59 2.95 8.262 4.568 2.273 1.027 4.164 1.923 5.672 2.699 1.508.776 3.234 1.836 5.18 3.191 1.945 1.355 3.486 2.797 4.622 4.295 1.137 1.508 2.109 3.355 2.918 5.562.809 2.207 1.213 4.59 1.213 7.158 0 6.677-2.459 12.097-7.377 16.239-4.917 4.153-11.452 6.218-19.604 6.218-8.743 0-15.857-1.541-21.365-4.623v-17.036c6.677 4.841 13.802 7.267 21.365 7.267 2.568 0 4.699-.678 6.392-2.044 1.694-1.355 2.536-3.136 2.536-5.344a6.59 6.59 0 0 0-.328-2.087c-.219-.656-.623-1.289-1.213-1.869a15.313 15.313 0 0 0-1.705-1.486c-.546-.404-1.355-.885-2.426-1.431-1.071-.558-1.967-1.006-2.699-1.377a96.167 96.167 0 0 0-3.246-1.541 142.612 142.612 0 0 0-3.464-1.541c-4.776-2.207-8.611-4.918-11.507-8.152-2.896-3.235-4.35-7.53-4.35-12.884 0-6.393 2.35-11.54 7.049-15.475 4.699-3.923 11.19-5.89 19.496-5.89 7.398 0 13.791 1.246 19.146 3.738ZM252.056 427.866h12.556l7.267 26.206a729.273 729.273 0 0 1 4.131 15.364c1.213 4.732 2.032 8.098 2.48 10.076l.656 2.972c.951-6.535 3.005-16.042 6.164-28.522l6.83-27.2h17.288l-19.824 74.224h-18.938l-6.502-23.463a940.927 940.927 0 0 1-3.803-14.316c-.995-3.89-1.596-6.393-1.814-7.485l-.219-1.65c-.218 3.016-2.207 10.829-5.945 23.462l-6.83 23.463h-18.938l-19.933-74.224h17.846l6.83 27.309c1.464 5.88 2.677 11.18 3.639 15.912.951 4.732 1.541 8.021 1.759 9.857l.437 2.644c1.246-5.726 3.749-15.201 7.486-28.413l7.377-26.216ZM319.777 500.997v-74.224h16.96v74.224h-16.96ZM350.506 500.997l6.382-74.224h18.611l10.349 26.872c1.759 4.481 3.267 8.59 4.513 12.338 1.246 3.748 2.054 6.382 2.426 7.934l.557 2.207c1.17-4.841 3.749-12.337 7.705-22.468l10.458-26.872h18.61l7.715 74.224h-16.96l-2.754-28.741-1.431-21.692c-1.913 5.507-4.557 12.742-7.934 21.692l-10.458 27.976h-10.021l-10.349-27.976c-1.694-4.546-3.126-8.623-4.295-12.229-1.18-3.595-1.945-6.098-2.317-7.485l-.546-1.978c0 5.212-.328 12.447-.994 21.692l-2.317 28.741h-16.95Z" fill="#277CE2" transform="matrix(1.0015 0 0 1 1630 1209)"/><path d="M271.682 211.097c-3.956.099-7.901.197-11.824.35-2.262.087-4.502.197-6.753.295-3.541.153-7.082.317-10.59.514-2.371.131-4.721.284-7.07.437a734.75 734.75 0 0 0-10.065.699c-2.371.175-4.732.372-7.092.568a898.059 898.059 0 0 0-16.72 1.563c-3.246.339-6.459.699-9.66 1.082-2.219.262-4.448.514-6.645.798-3.278.415-6.502.863-9.715 1.311-2.043.284-4.109.557-6.119.863l-1.651.263v88.954a9.403 9.403 0 0 0 5.519 8.568l26.621 12.097c11.944 5.431 25.735 6.109 37.767.896 12.021-5.202 20.895-14.928 24.971-27.364l5.267-16.097c3.836-11.715 14.534-20.239 26.861-20.337 12.546-.109 23.2 7.551 27.102 19.441l5.147 15.715c4.076 12.458 12.906 23.069 24.872 28.413 11.966 5.343 25.146 5.3 37.068-.121l27.834-12.654a9.403 9.403 0 0 0 5.519-8.568v-88.954c-16.546-2.514-33.91-4.514-51.854-6-2.863-.24-5.748-.437-8.633-.645-3.279-.24-6.557-.48-9.879-.677-3.071-.186-6.164-.328-9.245-.492-3.148-.164-6.284-.339-9.464-.459-3.694-.153-7.409-.24-11.125-.35-2.612-.076-5.212-.174-7.835-.229a937.478 937.478 0 0 0-19.234-.197c-5.912 0-11.802.066-17.67.175-1.902.022-3.803.088-5.705.142Z" fill="#7FFDFF" transform="matrix(1.0015 0 0 1 1630 1209)"/><path d="M370.319 365.412a76.387 76.387 0 0 1-30.752-6.447c-19.878-8.732-35.166-25.583-41.931-46.215l-2.579-7.89-2.579 7.89a76.555 76.555 0 0 1-41.931 46.215 76.591 76.591 0 0 1-62.399-.394l-27.833-12.654a40.799 40.799 0 0 1-23.911-37.134v-102.33c0-7.639 5.497-14.163 13.015-15.452 43.909-7.585 94.266-11.584 145.627-11.584 16.786 0 33.462.426 49.843 1.256 17.376.886 30.511 16.098 29.014 33.429-25.462-2.196-51.995-3.311-78.857-3.311-44.575 0-88.265 3.104-127.279 9.016v88.987a9.403 9.403 0 0 0 5.519 8.568l26.621 12.097c11.944 5.431 25.735 6.109 37.767.896 12.021-5.202 20.895-14.928 24.971-27.364l5.267-16.097c3.836-11.715 14.534-20.239 26.861-20.337 12.546-.109 23.201 7.551 27.102 19.441l5.147 15.715c4.076 12.458 12.906 23.069 24.872 28.413 11.966 5.343 25.146 5.3 37.068-.121l27.834-12.654a9.403 9.403 0 0 0 5.519-8.568V88.244h31.374v220.539a40.799 40.799 0 0 1-23.911 37.134l-27.833 12.654a76.4 76.4 0 0 1-31.626 6.841Z" fill="#277CE2" transform="matrix(1.0015 0 0 1 1630 1209)"/></g></g></g><path d="M1656.11 1344.7c60.57-152.02 230.61-227.07 379.81-167.64 149.21 59.44 221.06 230.87 160.5 382.89-60.56 152.02-230.61 227.08-379.81 167.64-149.2-59.44-221.06-230.87-160.5-382.89Z" stroke="#277CE2" stroke-width="20.625" stroke-miterlimit="8" fill="none"/><path d="M1798.24 1180.39a3.95 3.95 0 0 1 2.17-5.13l14.59-5.91c2.01-.81 4.3.16 5.12 2.17l42.08 103.8c.81 2.01-.16 4.31-2.17 5.12l-14.58 5.91c-2.02.82-4.31-.15-5.13-2.16ZM1991.68 1632.11c-.81-2.01.16-4.3 2.17-5.12l14.58-5.91c2.02-.82 4.31.15 5.13 2.17l42.07 103.8c.82 2.01-.15 4.3-2.17 5.12l-14.58 5.91c-2.01.82-4.31-.15-5.12-2.17ZM1655.04 1587.7c-2.04.77-4.31-.25-5.08-2.28l-5.57-14.72a3.93 3.93 0 0 1 2.28-5.07l104.73-39.69c2.04-.77 4.31.25 5.08 2.28l5.57 14.71c.77 2.03-.25 4.31-2.28 5.08ZM2154.71 1371.24a3.93 3.93 0 0 1-5.07-2.28l-5.58-14.72c-.77-2.03.26-4.3 2.29-5.07l55.91-21.19c2.03-.77 4.31.25 5.08 2.28l5.57 14.71c.77 2.04-.25 4.31-2.28 5.08ZM1641.84 1354.97a3.926 3.926 0 0 1-2.2-5.11l5.82-14.62c.81-2.01 3.09-3 5.11-2.2l84.73 33.76c2.02.8 3 3.09 2.2 5.11l-5.83 14.62c-.8 2.01-3.09 3-5.11 2.19ZM2108.98 1547.95c-2.02-.81-3-3.09-2.2-5.11l5.82-14.62c.81-2.02 3.1-3 5.12-2.2l93.92 37.42c2.02.8 3.01 3.09 2.2 5.11l-5.82 14.62c-.81 2.02-3.09 3-5.11 2.2ZM2031.68 1253.09c-.81 2.02-3.1 3.01-5.11 2.2l-14.62-5.82c-2.02-.8-3-3.09-2.2-5.11l30.42-76.36c.8-2.02 3.09-3 5.11-2.2l14.62 5.83c2.02.8 3 3.09 2.2 5.11ZM1819.41 1742.39c-.8 2.02-3.09 3-5.11 2.2l-14.61-5.82a3.93 3.93 0 0 1-2.2-5.11l45.89-115.19c.8-2.02 3.09-3 5.11-2.2l14.61 5.82c2.02.81 3.01 3.1 2.2 5.11Z" stroke="#0D0D0D" stroke-width="4.583" stroke-miterlimit="8" fill="#0D0D0D" fill-rule="evenodd"/></g></svg>

<svg width="683" height="685" xmlns="http://www.w3.org/2000/svg" xmlns:xlink="http://www.w3.org/1999/xlink" xml:space="preserve" overflow="hidden"><defs><clipPath id="clip0"><rect x="1584" y="1109" width="683" height="685"/></clipPath><clipPath id="clip1"><rect x="1630" y="1208" width="591" height="387"/></clipPath><clipPath id="clip2"><rect x="1630" y="1208" width="591" height="387"/></clipPath><clipPath id="clip3"><rect x="1630" y="1208" width="591" height="592"/></clipPath></defs><g clip-path="url(#clip0)" transform="translate(-1584 -1109)"><path d="M1618.06 1329.14C1685.84 1159.01 1878.32 1075.88 2047.98 1143.47 2217.64 1211.06 2300.23 1403.77 2232.45 1573.9 2164.67 1744.03 1972.19 1827.16 1802.53 1759.57 1632.87 1691.98 1550.28 1499.27 1618.06 1329.14Z" stroke="#277CE2" stroke-width="20.625" stroke-miterlimit="8" fill="#0D0D0D" fill-rule="evenodd"/><g clip-path="url(#clip1)"><g clip-path="url(#clip2)"><g clip-path="url(#clip3)"><path d="M197.973 430.063 197.973 445.919C192.028 442.466 185.853 440.739 179.471 440.739 176.608 440.739 174.423 441.329 172.915 442.499 171.407 443.679 170.652 445.176 170.652 447.012 170.652 448.848 171.57 450.476 173.406 451.908 175.242 453.339 177.996 454.858 181.668 456.476 183.941 457.503 185.832 458.399 187.34 459.175 188.848 459.951 190.574 461.011 192.52 462.366 194.465 463.721 196.006 465.163 197.142 466.661 198.279 468.169 199.251 470.016 200.06 472.223 200.869 474.43 201.273 476.813 201.273 479.381 201.273 486.058 198.814 491.478 193.896 495.62 188.979 499.773 182.444 501.838 174.292 501.838 165.549 501.838 158.435 500.297 152.927 497.215L152.927 480.179C159.604 485.02 166.729 487.446 174.292 487.446 176.86 487.446 178.991 486.768 180.684 485.402 182.378 484.047 183.22 482.266 183.22 480.058 183.22 479.326 183.11 478.627 182.892 477.971 182.673 477.315 182.269 476.682 181.679 476.102 181.089 475.512 180.521 475.021 179.974 474.616 179.428 474.212 178.619 473.731 177.548 473.185 176.477 472.627 175.581 472.179 174.849 471.808 174.117 471.436 173.035 470.923 171.603 470.267 170.172 469.611 169.013 469.098 168.139 468.726 163.363 466.519 159.528 463.808 156.632 460.574 153.736 457.339 152.282 453.044 152.282 447.69 152.282 441.297 154.632 436.15 159.331 432.215 164.03 428.292 170.521 426.325 178.827 426.325 186.225 426.325 192.618 427.571 197.973 430.063Z" stroke="#277CE2" stroke-width="1.09285" fill="#277CE2" transform="matrix(1.0015 0 0 1 1630 1209)"/><path d="M252.056 427.866 264.612 427.866 271.879 454.072C273.42 459.579 274.797 464.704 276.01 469.436 277.223 474.168 278.042 477.534 278.49 479.512L279.146 482.484C280.097 475.949 282.151 466.442 285.31 453.962L292.14 426.762 309.428 426.762 289.604 500.986 270.666 500.986 264.164 477.523C262.623 471.873 261.355 467.098 260.361 463.207 259.366 459.317 258.765 456.814 258.547 455.722L258.328 454.072C258.11 457.088 256.121 464.901 252.383 477.534L245.553 500.997 226.615 500.997 206.682 426.773 224.528 426.773 231.358 454.082C232.822 459.962 234.035 465.262 234.997 469.994 235.948 474.726 236.538 478.015 236.756 479.851L237.193 482.495C238.439 476.769 240.942 467.294 244.679 454.082L252.056 427.866Z" stroke="#277CE2" stroke-width="1.09285" fill="#277CE2" transform="matrix(1.0015 0 0 1 1630 1209)"/><path d="M319.777 500.997 319.777 426.773 336.737 426.773 336.737 500.997 319.777 500.997Z" stroke="#277CE2" stroke-width="1.09285" fill="#277CE2" transform="matrix(1.0015 0 0 1 1630 1209)"/><path d="M350.506 500.997 356.888 426.773 375.499 426.773 385.848 453.645C387.607 458.126 389.115 462.235 390.361 465.983 391.607 469.731 392.415 472.365 392.787 473.917L393.344 476.124C394.514 471.283 397.093 463.787 401.049 453.656L411.507 426.784 430.117 426.784 437.832 501.008 420.872 501.008 418.118 472.267 416.687 450.575C414.774 456.082 412.13 463.317 408.753 472.267L398.295 500.243 388.274 500.243 377.925 472.267C376.231 467.721 374.799 463.644 373.63 460.038 372.45 456.443 371.685 453.94 371.313 452.553L370.767 450.575C370.767 455.787 370.439 463.022 369.773 472.267L367.456 501.008 350.506 501.008Z" stroke="#277CE2" stroke-width="1.09285" fill="#277CE2" transform="matrix(1.0015 0 0 1 1630 1209)"/><path d="M271.682 211.097C267.726 211.196 263.781 211.294 259.858 211.447 257.596 211.534 255.356 211.644 253.105 211.742 249.564 211.895 246.023 212.059 242.515 212.256 240.144 212.387 237.794 212.54 235.445 212.693 232.079 212.911 228.713 213.13 225.38 213.392 223.009 213.567 220.648 213.764 218.288 213.96 215.009 214.234 211.742 214.529 208.507 214.835 206.19 215.053 203.874 215.283 201.568 215.523 198.322 215.862 195.109 216.222 191.908 216.605 189.689 216.867 187.46 217.119 185.263 217.403 181.985 217.818 178.761 218.266 175.548 218.714 173.505 218.998 171.439 219.271 169.429 219.577 168.871 219.665 168.336 219.752 167.778 219.84L167.778 308.794C167.778 312.488 169.931 315.832 173.297 317.362L199.918 329.459C211.862 334.89 225.653 335.568 237.685 330.355 249.706 325.153 258.58 315.427 262.656 302.991L267.923 286.894C271.759 275.179 282.457 266.655 294.784 266.557 307.33 266.448 317.984 274.108 321.886 285.998L327.033 301.713C331.109 314.171 339.939 324.782 351.905 330.126 363.871 335.469 377.051 335.426 388.973 330.005L416.807 317.351C420.173 315.821 422.326 312.477 422.326 308.783L422.326 219.829C405.78 217.315 388.416 215.315 370.472 213.829 367.609 213.589 364.724 213.392 361.839 213.184 358.56 212.944 355.282 212.704 351.96 212.507 348.889 212.321 345.796 212.179 342.715 212.015 339.567 211.851 336.431 211.676 333.251 211.556 329.557 211.403 325.842 211.316 322.126 211.206 319.514 211.13 316.914 211.032 314.291 210.977 307.909 210.846 301.494 210.78 295.057 210.78 289.145 210.78 283.255 210.846 277.387 210.955 275.485 210.977 273.584 211.043 271.682 211.097Z" stroke="#277CE2" stroke-width="1.09285" fill="#7FFDFF" transform="matrix(1.0015 0 0 1 1630 1209)"/><path d="M370.319 365.412C359.839 365.412 349.359 363.27 339.567 358.965 319.689 350.233 304.401 333.382 297.636 312.75L295.057 304.86 292.478 312.75C285.714 333.393 270.437 350.233 250.547 358.965 230.669 367.696 207.917 367.554 188.148 358.571L160.315 345.917C145.758 339.294 136.404 324.782 136.404 308.783L136.404 206.453C136.404 198.814 141.901 192.29 149.419 191.001L149.419 191.001C193.328 183.416 243.685 179.417 295.046 179.417 311.832 179.417 328.508 179.843 344.889 180.673 362.265 181.559 375.4 196.771 373.903 214.102L373.903 214.102C348.441 211.906 321.908 210.791 295.046 210.791 250.471 210.791 206.781 213.895 167.767 219.807L167.767 308.794C167.767 312.488 169.92 315.832 173.286 317.362L199.907 329.459C211.851 334.89 225.642 335.568 237.674 330.355 249.695 325.153 258.569 315.427 262.645 302.991L267.912 286.894C271.748 275.179 282.446 266.655 294.773 266.557 307.319 266.448 317.974 274.108 321.875 285.998L327.022 301.713C331.098 314.171 339.928 324.782 351.894 330.126 363.86 335.469 377.04 335.426 388.962 330.005L416.796 317.351C420.162 315.821 422.315 312.477 422.315 308.783L422.315 88.244 453.689 88.244 453.689 308.783C453.689 324.782 444.335 339.294 429.778 345.917L401.945 358.571C391.924 363.128 381.127 365.412 370.319 365.412Z" stroke="#277CE2" stroke-width="1.09285" fill="#277CE2" transform="matrix(1.0015 0 0 1 1630 1209)"/></g></g></g><path d="M1656.11 1344.7C1716.68 1192.68 1886.72 1117.63 2035.92 1177.06 2185.13 1236.5 2256.98 1407.93 2196.42 1559.95 2135.86 1711.97 1965.81 1787.03 1816.61 1727.59 1667.41 1668.15 1595.55 1496.72 1656.11 1344.7Z" stroke="#277CE2" stroke-width="20.625" stroke-miterlimit="8" fill="none" fill-rule="evenodd"/><path d="M1798.24 1180.39C1797.43 1178.37 1798.4 1176.08 1800.41 1175.26L1815 1169.35C1817.01 1168.54 1819.3 1169.51 1820.12 1171.52L1862.2 1275.32C1863.01 1277.33 1862.04 1279.63 1860.03 1280.44L1845.45 1286.35C1843.43 1287.17 1841.14 1286.2 1840.32 1284.19Z" stroke="#0D0D0D" stroke-width="4.58333" stroke-miterlimit="8" fill="#0D0D0D" fill-rule="evenodd"/><path d="M1991.68 1632.11C1990.87 1630.1 1991.84 1627.81 1993.85 1626.99L2008.43 1621.08C2010.45 1620.26 2012.74 1621.23 2013.56 1623.25L2055.63 1727.05C2056.45 1729.06 2055.48 1731.35 2053.46 1732.17L2038.88 1738.08C2036.87 1738.9 2034.57 1737.93 2033.76 1735.91Z" stroke="#0D0D0D" stroke-width="4.58333" stroke-miterlimit="8" fill="#0D0D0D" fill-rule="evenodd"/><path d="M1655.04 1587.7C1653 1588.47 1650.73 1587.45 1649.96 1585.42L1644.39 1570.7C1643.62 1568.67 1644.64 1566.4 1646.67 1565.63L1751.4 1525.94C1753.44 1525.17 1755.71 1526.19 1756.48 1528.22L1762.05 1542.93C1762.82 1544.96 1761.8 1547.24 1759.77 1548.01Z" stroke="#0D0D0D" stroke-width="4.58333" stroke-miterlimit="8" fill="#0D0D0D" fill-rule="evenodd"/><path d="M2154.71 1371.24C2152.68 1372.01 2150.41 1370.99 2149.64 1368.96L2144.06 1354.24C2143.29 1352.21 2144.32 1349.94 2146.35 1349.17L2202.26 1327.98C2204.29 1327.21 2206.57 1328.23 2207.34 1330.26L2212.91 1344.97C2213.68 1347.01 2212.66 1349.28 2210.63 1350.05Z" stroke="#0D0D0D" stroke-width="4.58333" stroke-miterlimit="8" fill="#0D0D0D" fill-rule="evenodd"/><path d="M1641.84 1354.97C1639.82 1354.17 1638.83 1351.88 1639.64 1349.86L1645.46 1335.24C1646.27 1333.23 1648.55 1332.24 1650.57 1333.04L1735.3 1366.8C1737.32 1367.6 1738.3 1369.89 1737.5 1371.91L1731.67 1386.53C1730.87 1388.54 1728.58 1389.53 1726.56 1388.72Z" stroke="#0D0D0D" stroke-width="4.58333" stroke-miterlimit="8" fill="#0D0D0D" fill-rule="evenodd"/><path d="M2108.98 1547.95C2106.96 1547.14 2105.98 1544.86 2106.78 1542.84L2112.6 1528.22C2113.41 1526.2 2115.7 1525.22 2117.72 1526.02L2211.64 1563.44C2213.66 1564.24 2214.65 1566.53 2213.84 1568.55L2208.02 1583.17C2207.21 1585.19 2204.93 1586.17 2202.91 1585.37Z" stroke="#0D0D0D" stroke-width="4.58333" stroke-miterlimit="8" fill="#0D0D0D" fill-rule="evenodd"/><path d="M2031.68 1253.09C2030.87 1255.11 2028.58 1256.1 2026.57 1255.29L2011.95 1249.47C2009.93 1248.67 2008.95 1246.38 2009.75 1244.36L2040.17 1168C2040.97 1165.98 2043.26 1165 2045.28 1165.8L2059.9 1171.63C2061.92 1172.43 2062.9 1174.72 2062.1 1176.74Z" stroke="#0D0D0D" stroke-width="4.58333" stroke-miterlimit="8" fill="#0D0D0D" fill-rule="evenodd"/><path d="M1819.41 1742.39C1818.61 1744.41 1816.32 1745.39 1814.3 1744.59L1799.69 1738.77C1797.67 1737.96 1796.68 1735.68 1797.49 1733.66L1843.38 1618.47C1844.18 1616.45 1846.47 1615.47 1848.49 1616.27L1863.1 1622.09C1865.12 1622.9 1866.11 1625.19 1865.3 1627.2Z" stroke="#0D0D0D" stroke-width="4.58333" stroke-miterlimit="8" fill="#0D0D0D" fill-rule="evenodd"/></g></svg>
